src/16/panel/btsync-gui-5.svg

<svg xmlns="http://www.w3.org/2000/svg" width="16" height="16" version="1.1">
 <defs>
  <style id="current-color-scheme" type="text/css">
   .ColorScheme-Text { color:#dfdfdf; } .ColorScheme-Highlight { color:#5294e2; }
  </style>
 </defs>
 <path style="fill:currentColor" class="ColorScheme-Text" d="m 12.949747,3.0502524 c -2.733497,-2.73349803 -7.1659962,-2.73349797 -9.8994945,10e-8 -2.73349802,2.7334979 -2.73349819,7.1659975 -10e-8,9.8994955 2.7334984,2.733497 7.1659976,2.733498 9.8994956,-10e-7 2.733498,-2.733498 2.733498,-7.1659965 -10e-7,-9.8994946 z m -1.414213,1.4142137 c 1.710493,1.7104933 1.922958,4.3521473 0.636672,6.2935269 l 0.777541,0.77754 -3.5355332,0.707108 0.7071062,-3.5355341 0.577286,0.5772857 C 11.22871,8.1700427 11.043749,6.801108 10.121321,5.8786796 9.6159039,5.3750404 8.9475293,5.0680288 8.2361627,5.01275 L 7.7003084,3.0157258 C 9.1270293,2.9282312 10.522979,3.4555454 11.535534,4.4644661 Z M 6.5857864,3.7573592 5.8786797,7.2928931 5.3013929,6.7156069 c -0.5301044,1.1143499 -0.3451415,2.4832848 0.5772866,3.4057141 0.5054158,0.503638 1.1737914,0.81065 1.8851583,0.86593 l 0.5358543,1.997023 C 6.8729707,13.071769 5.4770428,12.544432 4.4644662,11.535534 2.7539718,9.8250407 2.5415081,7.1833866 3.8277931,5.2420076 L 3.0502527,4.4644661 6.5857864,3.7573592 Z"/>
</svg>

<svg xmlns="http://www.w3.org/2000/svg" width="16" height="16"><defs><style id="current-color-scheme" type="text/css"></style></defs><path d="M12.95 3.05a7 7 0 1 0-9.9 9.9 7 7 0 0 0 9.9-9.9zm-1.414 1.414a5.002 5.002 0 0 1 .636 6.294l.778.778-3.536.707.707-3.536.578.577a2.99 2.99 0 0 0-.578-3.405 3 3 0 0 0-1.885-.866L7.7 3.016a5 5 0 0 1 3.836 1.448zm-4.95-.707l-.707 3.536-.578-.577a2.99 2.99 0 0 0 .578 3.405 3 3 0 0 0 1.885.866l.536 1.997a5 5 0 0 1-3.836-1.448 5.002 5.002 0 0 1-.636-6.294l-.778-.778 3.536-.707z" fill="currentColor" color="#dfdfdf"/></svg>
